X:1
T:Title
%%score 1 2 3 4
L:1/8
M:4/2
K:C
V:1 treble nm="Part_1"
V:2 bass nm="Part_2"
V:3 treble nm="Part_3"
V:4 bass nm="Part_4"
V:1
 d6 A2 ^F4 F2 A2 |[M:4/4] (_B4 =B>)c d2 |[M:4/2] A6 _B2 B3 A A4 | G4 z4 z8 | z16 | z16 | %6
 z4 z Bcd B4 A4 | z4 z A_Bc A4 Gddd | d4 B4 z4 z ccc | c4 A4 z A2 c A4 |[M:4/4] GddB B2 ^G2 | %11
[M:4/2] z ee^c c2 d2 B4 A4 | z8 z4 z c c2- | c2 BA GE E4 C2 B,4 | z4 z e e4 dc BG G2- | %15
 G2 E2 D4 z8 | z4 d2 d4 c2 cccB | B8 A4 c2 c2- | c2 B2 _BBBA A8 |[M:4/4] G8 |[M:6/2] z24 | z24 | %22
 z24 |[M:4/2] z8 z4 B2 B2 |[M:4/4] d3 d e4 |[M:6/2] z24 | z24 | z24 |[M:6/2] z8 z4 c2 c2 e3 e f4 | %29
[M:6/2] z24 | z24 | A8 A8 B8 | ^c16 d8 | e24 | d16 z8 | z24 | z24 | G8 G8 A8 | B16 c8 | d24 | %40
 c16 z8 | z24 | z24 | A8 A8 B8 | ^c16 d8 |[M:4/2] e8 d8 |[M:6/2] z16 z4 z2 B2 | %47
[M:4/2] c6 BB B4 A4 |[M:6/2] z8 z4 z2 A2 _B6 AA | A4 G4 z4 d8 e2 B2 |[M:4/2] B4 A4 z8 | %51
[M:6/2] z4 c8 d2 A2 A4 G2 B2 |[M:4/2] d6 cc c4 B4 |[M:6/2] e12 e4 d8 | c16 B8 | A16 G8 | %56
 f12 f4 e8 | d16 c8 |[M:4/2] _B2 A/G/A/F/ G4 F8 |[M:6/2] z24 | A12 A4 G8 | F16 E8 | D16 C8 | %63
 _B12 B4 A8 |[M:4/2] G2 F2 E4 D4 A2 A2 | B3 ^c A3 A A4 z4 | B2 B2 c3 d B3 B B4 |[M:6/2] e12 d4 c8 | %68
 B16 A8 | e12 d4 c8 |[M:4/2] B8 A8 | z8 z4 z2 c2 | c6 _B2 B2 A2 G4 | z8 z4 z2 d2 | d6 c2 c2 B2 A4 | %75
[M:4/4] z2 A2 GEFA |[M:4/2] E2 Dd cABd A2 GG FDEG | D4 E2 e2 dBce B2 AA | GEFA E2 Dd cABd A2 G2- | %79
 G2 ^F2 G4 d6 G2 | G4- GEFG A2 G4 ^F2 | G16 |] %82
V:2
 z16 |[M:4/4] z8 |[M:4/2] z8 z8 | G,6 D,2 B,,4 B,,2 D,2 | (_E,4 =E,>)F, G,2 D,6 _B,,2 | %5
 B,,3 A,, A,,4 G,,4 z G,G,G, | G,4 E,4 z4 z F,F,F, | F,4 D,4 z8 | z4 z E,F,G, E,4 A,,4 | %9
 z4 z D,E,F, D,3 (C, D,4) |[M:4/4] G,,G,G,G, E,2 E,2 |[M:4/2] z A,A,A, ^F,2 =F,2 E,4 A,,4 | %12
 z F, F,4 E,D, C,A,, A,,4 F,,2 | E,,4 z4 z A, A,4 G,F, | E,C, C,4 A,,2 G,,4 z4 | %15
 z4 D,2 D,4 C,2 C,C,C,B,, | B,,8 A,,4 A,2 A,2- | A,2 G,2 G,G,G,F, F,8 | E,4 z4 z8 |[M:4/4] z8 | %20
[M:6/2] G,16 E,8 | F,8 F,8 D,8 | E,16 C,8 |[M:4/2] D,2 E,2 D,4 G,,8 |[M:4/4] z8 |[M:6/2] A,16 F,8 | %26
 G,8 G,8 E,8 | F,16 D,8 |[M:6/2] E,2 F,2 E,4 A,,8 z8 |[M:6/2] D,16 D,8 | G,16 E,8 | F,8 F,8 D,8 | %32
 A,16 _B,8 | A,24 | D,24 | C,16 C,8 | F,16 D,8 | E,8 E,8 C,8 | G,16 A,8 | G,24 | C,24 | D,16 D,8 | %42
 G,16 E,8 | F,8 F,8 D,8 | A,16 _B,8 |[M:4/2] A,8 D,8 |[M:6/2] z4 G,8 A,2 E,2 E,4 E,4 | %47
[M:4/2] z8 z4 F,4- |[M:6/2] F,4 G,2 D,2 D,4 D,4 z8 | z8 z16 |[M:4/2] z2 E,2 F,6 E,E, E,4 | %51
[M:6/2] A,,4 z4 z8 z2 ^F,2 G,4- |[M:4/2] G,2 F,F, F,4 E,8 |[M:6/2] z24 | A,12 A,4 G,8 | F,16 E,8 | %56
 D,16 C,8 | _B,12 B,4 A,8 |[M:4/2] G,2 F,2 C,4 F,,8 |[M:6/2] A,12 A,4 G,8 | F,16 E,8 | D,16 C,8 | %62
 _B,12 B,4 A,8 | G,16 F,8 |[M:4/2] E,2 F,/E,/F,/D,/ A,2 A,,2 D,8 | z16 | z16 |[M:6/2] z24 | z24 | %69
 z24 |[M:4/2] z8 z4 F,2 G,A, | D,2 D,F, F,2 E,D, C,4 F,,4 | z8 z4 G,2 A,B, | %73
 E,2 E,G, G,2 F,E, D,4 G,,2 G,2 | G,6 A,2 A,2 E,2 A,,2 A,2 |[M:4/4] G,E,F,A, E,2 D,D, | %76
[M:4/2] C,A,,B,,D, A,,2 G,,G, F,D,E,G, D,2 C,/D,/E,/F,/ | G,2 G,,2 C,4 z2 A,2 G,E,F,A, | %78
 E,2 D,D, C,A,,B,,D, A,,2 G,,G, F,D,E,G, | D,4 G,,4 z4 G,4- | G,2 C,2 C,4- C,A,,B,,C, D,4 | %81
 G,,16 |] %82
V:3
 d6 A2 ^F4 F2 A2 |[M:4/4] (_B4 =B>)c d2 |[M:4/2] A6 _B2 B3 A A4 | G4 z4 z8 | z16 | z16 | %6
 z4 z Bcd B4 A4 | z4 z A_Bc A4 Gddd | d4 B4 z4 z ccc | c4 A4 z ABc A4 |[M:4/4] GddB B2 ^G2 | %11
[M:4/2] z ee^c c2 d2 B4 A4 | z8 z4 z c c2- | c2 BAGE E4 C2 B,4 | z4 z e e4 dcBG G2- | G2 E2 D4 z8 | %16
 z4 d2 d4 c2 cccB | B8 A4 c2 c2 | c2 B2 _BBBA A8 |[M:4/4] G8 |[M:6/2] z24 | z24 | z24 | %23
[M:4/2] z8 z4 B2 B2 |[M:4/4] d3 d e4 |[M:6/2] z24 | z24 | z24 |[M:6/2] z8 z4 c2 c2 e3 e f4 | %29
[M:6/2] z24 | z24 | A8 A8 B8 | ^c16 d8 | e24 | d16 z8 | z24 | z24 | G8 G8 A8 | B16 c8 | d24 | %40
 c16 z8 | z24 | z24 | A8 A8 B8 | ^c16 d8 |[M:4/2] e8 d8 |[M:6/2] z16 z4 z2 B2 | %47
[M:4/2] c6 BB B4 A4 |[M:6/2] z8 z4 z2 A2 _B6 AA | A4 G4 z4 d8 e2 B2 |[M:4/2] B4 A4 z8 | %51
[M:6/2] z4 c8 d2 A2 A4 G2 B2 |[M:4/2] d6 cc c4 B4 |[M:6/2] e12 e4 d8 | c16 B8 | A16 G8 | %56
 f12 f4 e8 | d16 c8 |[M:4/2] _B2 A2 G4 F8 |[M:6/2] z24 | A12 A4 G8 | F16 E8 | D16 C8 | _B12 B4 A8 | %64
[M:4/2] G2 F2 E4 D4 A2 A2 | B3 ^c A3 A A4 z4 | B2 B2 c3 d B3 B B4 |[M:6/2] e12 d4 c8 | B16 A8 | %69
 e12 d4 c8 |[M:4/2] B8 A8 | z8 z4 z2 c2 | c6 _B2 B2 A2 G4 | z8 z4 z2 d2 | d6 c2 c2 B2 A4 | %75
[M:4/4] z2 A2 GEFA |[M:4/2] E2 Dd cABd A2 GG FDEG | D4 E2 e2 dBce B2 AA | GEFA E2 Dd cABd A2 G2- | %79
 G2 ^F2 G4 d6 G2 | G4- GEFG A2 G4 ^F2 | G16 |] %82
V:4
 G,4 D,4 D,4 D,2 D,2 |[M:4/4] G,,8 |[M:4/2] D,8- D,8 | G,6 D,2 B,,4 B,,2 D,2 | %4
 (_E,4 =E,4) D,6 _B,,2 | B,,3 A,, A,,4 G,,4- G,,G,G,G, | G,4 E,8 A,,F,F,F, | F,4 D,8 G,,4 | %8
 G,,4- G,,E,F,G, E,4 A,,4- | A,,4 D,D,E,F, D,8 |[M:4/4] G,,G,G,G, E,2 E,2- | %11
[M:4/2] E,A,A,A, ^F,2 =F,2 E,4 A,,4 | F,6 E,D, C,A,, A,,4 F,,2 | E,,8 A,2 A,4 G,F, | %14
 E,C, C,4 A,,2 G,,8 | C,4 D,2 D,4 C,2 C,C,C,B,, | B,,8 A,,4 A,2 A,2- | A,2 G,2 G,G,G,F, F,8 | %18
 E,4 G,4 D,8 |[M:4/4] G,,8 |[M:6/2] G,16 E,8 | F,8 F,8 D,8 | E,16 C,8 | %23
[M:4/2] D,2 E,2 D,4 G,,4 G,2 G,2 |[M:4/4] F,3 F, E,4 |[M:6/2] A,16 F,8 | G,8 G,8 E,8 | F,16 D,8 | %28
[M:6/2] E,2 F,2 E,4 A,,4 A,2 A,2 A,4 D,4 |[M:6/2] D,16 D,8 | G,16 E,8 | F,8 F,8 D,8 | A,16 _B,8 | %33
 A,24 | D,24 | C,16 C,8 | F,16 D,8 | E,8 E,8 C,8 | G,16 A,8 | G,24 | C,24 | D,16 D,8 | G,16 E,8 | %43
 F,8 F,8 D,8 | A,16 _B,8 |[M:4/2] A,8 D,8 |[M:6/2] z4 G,8 A,2 E,2 E,4 E,4 |[M:4/2] E,12 F,4- | %48
[M:6/2] F,4 G,2 D,2 D,4 D,4 D,8- | D,4 G,,4 z4 G,8 C,2 E,2 |[M:4/2] E,4 F,6 E,E, E,4 | %51
[M:6/2] A,,4 F,8 D,2 D,2 D,2 ^F,2 G,4- |[M:4/2] G,2 F,F, F,4 E,8 |[M:6/2] C,12 C,4 G,8 | %54
 A,12 A,4 G,8 | F,16 E,8 | D,16 C,8 | _B,12 B,4 A,8 |[M:4/2] G,2 F,2 C,4 F,,8 | %59
[M:6/2] A,12 A,4 G,8 | F,16 E,8 | D,16 C,8 | _B,12 B,4 A,8 | G,16 F,8 |[M:4/2] E,2 D,2 A,,4 D,8 | %65
 G,3 E, D,4 D,8 | G,2 G,2 A,3 F, E,3 E, E,4 |[M:6/2] C,12 B,,4 A,,8 | E,16 A,,8 | C,12 B,,4 A,,8 | %70
[M:4/2] E,8 A,,4 F,2 G,A, | D,2 D,F, F,2 E,D, C,4 F,,4 | F,6 G,2 G,2 D,2 G,2 A,B, | %73
 E,2 E,G, G,2 F,E, D,4 G,,2 G,2 | G,6 A,2 A,2 E,2 A,,2 A,2 |[M:4/4] G,E,F,A, E,2 D,D, | %76
[M:4/2] C,A,,B,,D, A,,2 G,,G, E,D,E,G, D,2 C,2 | G,2 G,,2 C,4 G,2 A,2 G,E,F,A, | %78
 E,2 D,D, C,A,,B,,D, A,,2 G,,G, F,D,E,G, | D,4 G,,4 G,,4 G,4- | G,2 C,2 C,4- C,A,,B,,C, D,4 | %81
 G,,16 |] %82

